X:1
T: Carmichael's Strathspey
C:
R:Strathspey
Q: 128
K:C
M:4/4
L:1/16
|:c3d e3d Ac3 g4|Ac3 G3e d3c de3|c3d e3c Ac3 G4|Ac3 G3e d4c4|
c3d e3d Ac3 g4|Ac3 G3e d3c de3|c3d e3c Ac3 G4|Ac3 G3e d4c4|
c3d e3f gc3 e4|f3d e3c d3c A3B|c3d e3f gc3 e4|f3d e3c d4c4|
c3d e3f gc3 e4|f3a e3g d3c de3|ce3 df3 eg3 fa3|ge3 f3e d4c4:|
